X:4317
L:1/8
M:3/4
K:G
 G3 A B2 | d4 eg | d2 eg | d B3 AG | A3 c d2 | e4 g2 | g/a/ b3 ag | e4 g2 | G3 A B2 | d4 eg | 
 d4 eg | d B3 g2 | a4 g>e | g4 dB | A4 G2 | e4 d2 || g2 G2 A>B | g2 G2 AB | g3 d gd | B4 AG | 
 a2 A2 B2 | a2 A2 B2 | g/a/ b3 a>g | e4 g2 | G3 A B2 | d4 eg | d4 eg | d B3 g2 | g/a/ b3 ag | 
 e4 dB | A4 G2 | e4 d2 ||

